X:1
T:52. Soldiers' Chorus
T:Charles Gounod (Arr.)
T:Soldiers' Chorus
T:52. Soldiers' Chorus
T:(From "Faust")
C:Charles Gounod (Arr.)
%%score ( 1 2 )
L:1/8
M:12/8
K:G
V:1 treble nm="P1"
V:2 treble 
V:1
"^Tempo marziale"!f! G6 D3"^This  stirring chorus is arranged from the composition for men's voices in the opera \"Faust\" by Charles Gounod, the French composer (1818-1898). Accompanied bya great orchestra  in the pit and full military band on the stage, this composition forms one of the great climaxes of the opera" G3 | %1
w: Glo- ry and|
 ABG A2 A [Dd]3- [Dd] z z | B6 G3 E3 | FGE F2 F [B,B]3- [B,B] z z | G6 D3 G3 | %5
w: love to the men of old, _|Their sons may|copy _ their virtues _ bold; _|Cour- age in|
 ABG A2 A [Dd]3- [Dd] z [Dd] | [Dd][Ee][Ff] [Gg] z G ABc d z D | d3- dc[FA] G3- G z z | %8
w: heart and a sword in hand, _ Both|read- y to fight and read- y to die for|Fa- * * ther- land! _|
!p! E z z F z z GFE [B,B]3- | [B,B]B,^D F2 F [DF]3- [DF]2 z |"^cresc." G z z A z z BAG [Dd]3- | %11
w: Who needs bid- ding to dare|_ by a trum- pet blown? _|Who lacks pit- y to spare|
 [Dd]DF A2 A [FA]3- [FA]2 z |!f! B z z ^c z z dcB [Ff]3- | %13
w: _ when the field is won? _|Who would fly from a foe|
 [Ff]F[F^A] [^G^c]2 [Gc] [Fc]3- [Fc] z [FA] | %14
w: _ if a- lone or lost? _ And|
 [^EB][E^c][EB] [Ed] z [Ed] [Fd][Fe][Fd] [Ff] z [F=A] | A3- A[GB][G^c] [Fd]3- [Fd] z z | %16
w: boast he was true, as cow- ard might do when|per- * il is past? _|
!pp! G6 D3 G3 | ABG A2 A [Dd]3- [Dd] z z |"^cresc." B6 G3 E3 | FGE F2 F [B,B]3- [B,B] z z | %20
w: Glo- ry and|love to the men of old! _|Their sons may|cop- y their virtues _ bold, _|
!f! G6 D3 G3 |"^cresc. molto" ABG A2 A [Dd]3- [Dd] z [Dd] | %22
w: Cour- age in|heart and a sword in hand, _ All|
!ff! [Dd][Ee][Ff] [Gg] z [GB] [Bd]3- [Bd][Ac][FA] | G3- G z z z6 |!p! [FA]6- [FA]2 ^G [FA]2 [FB] | %25
w: read- y to fight for Fa- * * ther-|land. _|Now _ to home a-|
 [FA]6- [FA]2 ^G [FA]2 [FB] | [FA]2 [Fd] [Fe]2 [Fd] [Ff]2 [F^c] [Fd]2 [FB] | [GB]3 A3- A z z z3 | %28
w: gain _ we come, the|long and fier- y strife of bat- tle|o- ver; _|
 [FA]6- [FA]2 ^G [FA]2 [FB] | [E^c]6- [Ec]2 [EB] [Ec]2 [Ed] | %30
w: Rest _ is pleasant _|aft- * er toil as|
 [Ee]2 [Ed] [E^c]2 [EB] [E^A]2 [EB] [Dd]2 [D^G] | [^C=A]6- [CA] z z z3 | %32
w: hard as ours beneath _ a stranger _|sun _|
!p! [FA]6- [FA]2 ^G [FA]2 [FB] | [FA]6- [FA]2 ^G [FA]2 [FB] | %34
w: Man- * y\_a maiden _|fair _ is waiting _|
 [FA]2 [Fd] [Fe]2 [Fd] [Ff]2 [F^c] [Fd]2 [FB] | [GB]3 A3- A z A [GB]2 A | %36
w: here to greet her truant _ soldier _|lov- er, _ And man- y\_a|
 [FA]6- [FA] z ^G [FA]2 [FB] | (A3 =G3-)"^cresc." G z [Gd] [G^c]2 [GB] | %38
w: heart _ will fail and|brow _ _ grow pale to|
 (B3 ^A3-) A z [FA] [FB]2 [F^c] | [Fe]2 [Fd] [F^c]2 [FB]"^dim." [=GB]2 =A [GB]2 A | %40
w: hear _ _ to hear the|tale of cru- el per- il he has|
!p! [FA]6- [FA] z ^G"^cresc." [FA]2 [FB] | (A3 =G3-) G z [Dd] [E^c]2 [EB] | %42
w: run _ And man- y\_a|heart, _ _ and man- y\_a|
 [FB]2 [FA] [FB]2 [FA] [FB]2 [FA] [FB]2 [FA] | %43
w: heart will fail, and brow grow pale to|
!f! [Ge]2 [Gd] [G^c]2 [GB] A2"^dim." [^CG] [CF]2 [CE] |!p! D6- D z D D2 D | %45
w: hear the tail of per- il he has|run. _ We are at|
"^cresc. molto" D6- D z D D2 D | D z D D2 D D z D D2 D | D6- D z z z3 |!ff! G6 D3 G3 | %49
w: home, _ we are at|home, we are at home, we are at|home. _|Glo- ry and|
 ABG A2 A [Dd]3- [Dd] z z | B6 G3 E3 | FGE F2 F [B,B]3- [B,B] z z | G6 D3 G3 | %53
w: love to the men of old; _|Their sons may|cop- y their virtues _ bold! _|Cour- age in|
 ABG A2 A [Dd]3- [Dd] z [Dd] | [Dd][Ee][Ff] [Gg] z [GB] [Bd]3- [Bd][Ac][FA] | %55
w: heart and a sword in hand, _ All|read- y to fight for Fa- * * ther-|
 G z G, G,B,D G z D D[DG][DB] | [Gd]3- [Gd] z [Bd] [ce]3- [ce][Bd][Ac] | %57
w: land! All read- y to fight, or read- y to|die for Fa- * * * ther-|
 [GB] z G, G,B,D G z D D[DG][DB] | [Gd]6- [Gd] z G G[GB][Gd] | [Ge]6- [Ge] z z [Ge]3 | %60
w: land! All read- y to fight, or read- y to|die, _ or read- y to|die, _ for|
"^rit." [Ff]6- [Ff]3 !fermata![Ad]3 | [Gg]6- [Gg] z z z3 |] %62
w: Fa- * ther-|land! *|
V:2
 G6 D3 G3 | ABG A2 A x3 x3 | B6 G3 E3 | FGE F2 F x3 x3 | G6 D3 G3 | ABG A2 A x3 x3 | %6
 x3 x x G ABc d x D | F3- F2 x G3- G z z | E x x F x x GFE x3 | x B,^D F2 E x3 x3 | %10
 G x x A x x BAG x3 | x DF A2 G x3 x3 | B x x ^c x x dcB x3 | x F x x3 x3 x3 | x12 | %15
 G3- G x x x3 x3 | G6 D3 G3 | ABG A2 A x3 x3 | B6 G3 E3 | FGE F2 F x3 x3 | G6 D3 G3 | %21
 ABG A2 A x3 x3 | x3 x x x x3 x3 | G3- G x x x4 x x | x3 x3 x x F x3 | x3 x3 x x F x3 | x12 | %27
 x3 G3- G x x x3 | x3 x3 x x F x3 | x12 | x12 | x12 | x3 x3 x x F x3 | x3 x3 x x F x3 | x12 | %35
 x3 G3- G x G x x G | x3 x3 x x F x3 | D6- D x x x3 | F6- F x x x3 | x3 x3 x x G x x G | %40
 x3 x3 x x F x3 | D6- D x x x3 | x12 | x3 x3 G2 x x3 | D6- D x D D2 D | D6- D x D D2 D | %46
 D x D D2 D D x D D2 D | D6- D x x x3 | G6 D3 G3 | ABG A2 A x3 x3 | B6 G3 E3 | FGE F2 F x3 x3 | %52
 G6 D3 G3 | ABG A2 A x3 x3 | x3 x x x x3 x3 | G x G, G,B,D G x D D x x | x12 | %57
 x x G, G,B,D G x D D x x | x3 x3 x x G G x x | x3 x3 x x x x x x | x3 x3 x x x x x x | %61
 x3 x3 x x x x3 |] %62

